assets/icons/important-filled.svg

<svg height="24" width="24" xmlns="http://www.w3.org/2000/svg"><g style="stroke-width:.8"><path style="fill:gray;fill-opacity:1;stroke-width:2;stroke-linecap:square" d="M12 2A10 10 0 0 0 2 12a10 10 0 0 0 10 10 10 10 0 0 0 10-10A10 10 0 0 0 12 2zm-1 4h2v5l-.4 3h-1.2l-.4-3V6zm1 10a1 1 0 0 1 1 1 1 1 0 0 1-1 1 1 1 0 0 1-1-1 1 1 0 0 1 1-1z" fill="gray"/></g></svg>

<?xml version="1.0" encoding="UTF-8" standalone="no"?>
<svg viewBox="0 0 24 24" height="24" width="24" version="1.1" id="svg8" sodipodi:docname="mark-important-filled.svg" inkscape:version="1.1 (ce6663b3b7, 2021-05-25)"
   xmlns:inkscape="http://www.inkscape.org/namespaces/inkscape"
   xmlns:sodipodi="http://sodipodi.sourceforge.net/DTD/sodipodi-0.dtd"
   xmlns="http://www.w3.org/2000/svg"
   xmlns:svg="http://www.w3.org/2000/svg">
   <defs id="defs12" />
   <sodipodi:namedview id="namedview10" pagecolor="#ffffff" bordercolor="#666666" borderopacity="1.0" inkscape:pageshadow="2" inkscape:pageopacity="0.0" inkscape:pagecheckerboard="0" showgrid="false" inkscape:zoom="14" inkscape:cx="7.3928571" inkscape:cy="19.035714" inkscape:window-width="1920" inkscape:window-height="1016" inkscape:window-x="0" inkscape:window-y="27" inkscape:window-maximized="1" inkscape:current-layer="g6" units="mm" />
   <g fill="#808080" id="g6" transform="matrix(1.25,0,0,1.25,2,2)" style="stroke-width:0.8">
      <path id="path869" style="fill:#808080;fill-opacity:1;fill-rule:evenodd;stroke-width:2;stroke-linecap:square" d="M 12 2 A 10 10 0 0 0 2 12 A 10 10 0 0 0 12 22 A 10 10 0 0 0 22 12 A 10 10 0 0 0 12 2 z M 11 6 L 13 6 L 13 11 L 12.599609 14 L 11.400391 14 L 11 11 L 11 6 z M 12 16 A 1 1 0 0 1 13 17 A 1 1 0 0 1 12 18 A 1 1 0 0 1 11 17 A 1 1 0 0 1 12 16 z " transform="matrix(0.8,0,0,0.8,-1.6,-1.6)" />
      <g fill="#808080" id="g6-4" style="stroke-width:0.8" />
   </g>
</svg>
